X:1
T:Bransle Gay
C:Pierre Phalese (L\"owener Tanzbuch, 1571)
Z:abc transcription Leonard Williams
M:6/4
L:1/4
K:G treble
%%pageheight 11 in
%%staffwidth 6.5 in
%%leftmargin .88 in
%
e|eg2e2e|eb2a2g|fe2f2f|eg2e2e|eb2a2g|af2e2e|
eg2e2e|eb2a2g|fe2f2f|eg2e2e|eb2a2g|af2e2e||
eb2g2g|ac'2b2g|af2e2e|eb2g2g|ac'2b2g|af2e2e|]
